X: 1
T: The Garavogue
R: reel
M: 4/4
L: 1/8
K: Gmin
F|DG G2 AFGF|DG G2 dGAc|dgga f2 gf|dcAG FGAF|
DG G2 AFGF|DG G2 dGAc|dg g2 (3agf ga|fdcA G3 F|
DG G2 AFGF|DG G2 dGAc|dgga f2 gf|dcAG FGAF|
G3 D FGAF|DG G2 dGAc|dg g2 (3agf ga|fdcA G3|
|:f|g2 g2 dgag|bgag gfd=e|f2 f2 cfag|fdcd fgaf|
g2 ag bgag|(3agf dc BGBc|dg (3gfg afga|fdcA G3:|

composer: Joe Liddy
